svg/clockface/clockfacefatrectsolid/clock_04_40.svg

<?xml version="1.0" encoding="UTF-8" standalone="no"?>
<svg
   height="1000"
   width="1000"
   version="1.1"
   viewBox="0 0 1000 1000"
   id="svg7"
   sodipodi:docname="clock_04_40.svg"
   xmlns:inkscape="http://www.inkscape.org/namespaces/inkscape"
   xmlns:sodipodi="http://sodipodi.sourceforge.net/DTD/sodipodi-0.dtd"
   xmlns="http://www.w3.org/2000/svg"
   xmlns:svg="http://www.w3.org/2000/svg">
  <defs
     id="defs11" />
  <sodipodi:namedview
     id="namedview9"
     pagecolor="#ffffff"
     bordercolor="#000000"
     borderopacity="0.25"
     inkscape:showpageshadow="2"
     inkscape:pageopacity="0.0"
     inkscape:pagecheckerboard="0"
     inkscape:deskcolor="#d1d1d1" />
  <path
     id="path15"
     style="color:#000000;fill:#000000;stroke-width:60;stroke-linecap:round;stroke-linejoin:round;-inkscape-stroke:none"
     d="M 339 129 C 223.17927 129 129 223.17927 129 339 L 129 659 C 129 774.82073 223.17927 869 339 869 L 659 869 C 774.82073 869 869 774.82073 869 659 L 869 339 C 869 223.17927 774.82073 129 659 129 L 339 129 z M 493.05469 460.60938 A 40.004 40.004 0 0 1 520 465.35938 L 641.24414 535.35938 L 675.88477 555.35938 L 635.88477 624.64062 L 601.24414 604.64062 L 500 546.1875 L 338.13477 639.64062 L 303.49414 659.64062 L 263.49414 590.35938 L 298.13477 570.35938 L 480 465.35938 A 40.004 40.004 0 0 1 493.05469 460.60938 z " />
</svg>

<svg xmlns="http://www.w3.org/2000/svg" width="1000" height="1000"><path d="M339 129c-115.82 0-210 94.18-210 210v320c0 115.82 94.18 210 210 210h320c115.82 0 210-94.18 210-210V339c0-115.82-94.18-210-210-210H339zm154.055 331.61A40.004 40.004 0 0 1 520 465.36l121.244 70 34.64 20-40 69.28-34.64-20L500 546.189 338.135 639.64l-34.64 20-40-69.282 34.64-20L480 465.36a40.004 40.004 0 0 1 13.055-4.75z" style="-inkscape-stroke:none" stroke-width="60" stroke-linecap="round" stroke-linejoin="round"/></svg>
